packages/core/src/svgs/dmtr.svg

<svg width="24" height="24" viewBox="0 0 24 24" fill="none" xmlns="http://www.w3.org/2000/svg">
<g clip-path="url(#clip0_31_9268)">
<path d="M0 0H24V24H0V0Z" fill="#36781D"/>
<path d="M12.5228 5.65735C14.5285 5.65735 16.3242 6.60878 17.4942 8.10021C16.8957 7.19601 16.0837 6.45319 15.1299 5.93742C14.1761 5.42166 13.1099 5.14883 12.0256 5.14307C8.34418 5.14307 5.14275 8.21164 5.14275 12.0002C5.14275 13.1445 5.41275 14.2245 5.89704 15.1716C6.0899 15.1159 6.28704 15.0602 6.47561 15.0131C6.05376 14.0666 5.85578 13.0356 5.89704 12.0002C6.02561 8.47307 9.06847 5.65735 12.5228 5.65735ZM12.0213 18.8574C12.1056 18.8575 12.1899 18.8561 12.2742 18.8531C10.0885 18.7674 7.98847 17.5502 6.8999 15.7502C8.46847 15.4759 10.9285 15.4288 11.9999 15.4288C12.9128 15.4288 14.9442 15.4459 16.337 15.6602C16.4613 15.4974 16.5728 15.3302 16.6799 15.1545C15.7156 14.9059 14.7085 14.7345 13.6799 14.6445C13.4999 14.4174 13.3842 13.9288 13.4399 13.4574C13.4699 13.2002 13.4999 13.0631 13.5085 13.1574C13.5299 13.4574 14.0185 12.8616 14.1128 12.4202C14.1942 12.0474 14.4599 11.6574 14.6356 11.6574C14.687 11.6574 14.8242 11.6059 14.9399 11.5416C15.0556 11.4774 15.2485 11.4002 15.3685 11.3702C15.6556 11.2974 15.7242 11.0702 15.5313 10.8516C15.2528 10.5302 15.2399 10.4531 15.4413 10.2388L15.6299 10.0288H15.3428C15.1885 10.0245 14.987 9.96878 14.897 9.90021C14.6999 9.74592 14.5413 9.74164 14.267 9.89164C13.6799 10.2131 12.0942 10.4059 9.97275 10.4059L9.83132 10.4102C8.12561 10.4102 7.8299 10.4145 7.68847 11.3574C7.64561 11.6445 7.63704 11.9316 7.62418 12.2145L7.59847 12.7288C7.46132 13.0631 7.39275 13.3288 7.44418 13.6288C7.45275 13.6716 7.46989 13.7102 7.48704 13.7445C7.50418 13.7874 7.52561 13.8302 7.52989 13.8859L7.52132 14.0874C7.51275 14.1688 7.50847 14.2288 7.52989 14.2288C7.70132 14.2288 7.82132 13.0288 7.69275 12.7288V12.6002C7.69275 12.3216 7.68847 11.8931 7.7999 11.7774C7.83418 11.7431 7.8599 11.8374 7.8599 11.9916C7.8599 12.1416 7.91989 12.3816 7.99275 12.5274C8.09989 12.7416 8.10418 12.8359 8.02704 13.0331C7.91561 13.2345 7.95418 13.5988 7.99275 13.9545L8.02704 14.3531C8.03132 14.5074 8.00132 14.6445 7.97132 14.7516V14.7688C7.9799 14.8331 8.04418 14.8331 8.09132 14.8374C8.11275 14.8374 8.13418 14.8374 8.13847 14.8459C8.18132 14.8716 8.19418 14.9188 8.18132 14.9574C6.46275 15.3088 4.8599 15.8959 3.42847 16.6716C4.38232 16.3454 5.35565 16.0792 6.34275 15.8745C6.97401 16.7983 7.82214 17.5533 8.81287 18.0733C9.8036 18.5934 10.9067 18.8626 12.0256 18.8574H12.0213ZM9.28704 14.7645C9.02561 14.8031 8.76418 14.8459 8.50704 14.8931C8.40418 14.8116 8.3699 14.6188 8.33132 14.3531C8.28847 14.0531 8.32275 13.9288 8.58847 13.4745C8.89704 12.9345 9.06418 12.7974 8.8199 13.2816C8.69132 13.5388 8.69132 13.5645 8.9399 14.0102C9.07704 14.2588 9.19275 14.5245 9.19275 14.5974C9.19275 14.6659 9.23561 14.7388 9.28704 14.7645ZM12.5142 14.5802C11.5895 14.5562 10.6644 14.5977 9.74561 14.7045C9.60847 14.6016 9.5099 14.3916 9.40275 14.1474C9.29132 13.8902 9.27418 13.7316 9.32561 13.4831C9.36418 13.3031 9.38989 13.1102 9.38561 13.0502C9.37704 12.9088 9.40275 12.8616 10.0028 13.0802C10.217 13.1574 10.4785 13.2945 10.577 13.3888C10.7056 13.5088 10.7742 13.5259 10.817 13.4531C11.0099 13.1359 12.197 12.8959 12.5228 13.1145C12.6299 13.1874 12.6256 13.2002 12.5013 13.2002C12.4242 13.2002 12.3728 13.2474 12.3985 13.3074C12.4199 13.3674 12.4499 13.6931 12.467 14.0274C12.467 14.0274 12.3128 14.3274 12.3942 14.3574C12.5228 14.4002 12.5228 14.5116 12.5142 14.5802ZM13.2256 14.6102L12.9128 14.5931C12.7628 14.4388 12.7242 14.0231 12.827 13.6288C12.8828 13.4231 12.8913 13.4274 13.0242 13.7574C13.1013 13.9459 13.187 14.2459 13.2128 14.4216C13.2256 14.4988 13.2299 14.5631 13.2256 14.6102ZM20.5713 16.6674C19.6981 16.3894 18.8112 16.1562 17.9142 15.9688C17.9999 15.8574 18.137 15.5959 18.137 15.5959C18.9942 15.8959 19.8085 16.2559 20.5713 16.6674ZM18.1928 12.0859C18.1928 15.3988 15.3042 18.0859 12.0642 18.0859C10.3413 18.0859 8.7899 17.3274 7.71418 16.1145L7.75275 16.2431C8.32067 16.9511 9.04018 17.5227 9.85828 17.9158C10.6764 18.3089 11.5722 18.5135 12.4799 18.5145C15.857 18.5145 18.857 15.7288 18.857 12.3002L18.8528 12.0859C18.7756 9.83164 17.2585 7.88592 15.4285 6.85735C14.5028 6.33878 13.0585 6.42878 12.3042 6.60021C13.0756 6.75021 13.5256 7.3545 14.0185 8.01021C14.3694 8.53563 14.8037 9.00029 15.3042 9.38592C15.917 9.81449 16.9328 9.79735 16.967 9.55735C17.0185 9.20592 16.427 8.44307 15.8442 7.97164C15.5013 7.68878 14.8713 7.43592 14.5328 7.29878C14.4042 7.24735 14.3185 7.21307 14.3056 7.20021C15.1113 7.32878 15.7628 7.53021 16.3628 8.10021C17.3656 9.06449 18.1928 10.4488 18.1928 12.0859Z" fill="white"/>
</g>
<defs>
<clipPath id="clip0_31_9268">
<rect width="24" height="24" fill="white"/>
</clipPath>
</defs>
</svg>

<svg xmlns="http://www.w3.org/2000/svg" width="24" height="24" fill="none" viewBox="0 0 24 24"><g clip-path="url(#a)"><path fill="#36781D" d="M0 0h24v24H0z"/><path fill="#fff" d="M12.523 5.657c2.005 0 3.801.952 4.971 2.443a6.6 6.6 0 0 0-5.468-2.957c-3.682 0-6.883 3.069-6.883 6.857 0 1.145.27 2.225.754 3.172.193-.056.39-.112.579-.159A6.74 6.74 0 0 1 5.897 12c.129-3.527 3.171-6.343 6.626-6.343m-.502 13.2q.127.001.253-.004C10.09 18.767 7.988 17.55 6.9 15.75c1.568-.274 4.028-.321 5.1-.321.913 0 2.944.017 4.337.231q.184-.244.343-.505a18.5 18.5 0 0 0-3-.51c-.18-.228-.296-.716-.24-1.188.03-.257.06-.394.069-.3.02.3.51-.295.604-.737.081-.373.347-.763.523-.763a.9.9 0 0 0 .304-.115c.116-.065.309-.142.428-.172.288-.073.356-.3.163-.518-.278-.322-.291-.399-.09-.613l.189-.21h-.287c-.155-.005-.356-.06-.446-.129-.197-.154-.356-.158-.63-.008-.587.321-2.173.514-4.294.514l-.142.004c-1.705 0-2.001.005-2.143.947-.042.288-.051.575-.064.857l-.026.515c-.137.334-.205.6-.154.9a.5.5 0 0 0 .043.116c.017.042.039.085.043.14l-.009.202c-.008.082-.013.142.009.142.171 0 .291-1.2.163-1.5V12.6c0-.278-.005-.707.107-.823.034-.034.06.06.06.215 0 .15.06.39.133.535.107.215.111.309.034.506-.111.202-.073.566-.034.922l.034.398c.004.154-.026.292-.056.399v.017c.009.064.073.064.12.068.022 0 .043 0 .047.009a.094.094 0 0 1 .043.111 17.2 17.2 0 0 0-4.753 1.715 24 24 0 0 1 2.915-.798 6.84 6.84 0 0 0 5.683 2.983zm-2.734-4.092q-.393.057-.78.128c-.103-.081-.137-.274-.176-.54-.043-.3-.008-.424.257-.878.309-.54.476-.678.232-.193-.129.257-.129.283.12.728.137.249.253.515.253.587 0 .069.043.142.094.168m3.227-.185q-1.39-.035-2.768.124c-.138-.102-.236-.312-.343-.557-.112-.257-.129-.415-.077-.664.038-.18.064-.373.06-.433-.009-.141.017-.188.617.03.214.077.476.214.574.309.129.12.197.137.24.064.193-.317 1.38-.557 1.706-.338.107.072.103.085-.022.085-.077 0-.128.047-.102.107.02.06.05.386.068.72 0 0-.154.3-.073.33.129.043.129.155.12.223m.712.03-.313-.017c-.15-.154-.189-.57-.086-.964.056-.206.064-.202.197.128.077.189.163.489.189.665a.8.8 0 0 1 .013.188m7.345 2.057a27 27 0 0 0-2.657-.698c.086-.112.223-.373.223-.373.857.3 1.671.66 2.434 1.071m-2.378-4.581c0 3.313-2.889 6-6.129 6a5.8 5.8 0 0 1-4.35-1.971l.039.128a6.07 6.07 0 0 0 4.727 2.272c3.377 0 6.377-2.786 6.377-6.215l-.004-.214c-.077-2.254-1.594-4.2-3.425-5.229-.925-.518-2.37-.428-3.124-.257.772.15 1.222.755 1.714 1.41.351.526.786.99 1.286 1.376.613.428 1.629.411 1.663.171.052-.351-.54-1.114-1.123-1.585-.343-.283-.973-.536-1.311-.673a2 2 0 0 1-.227-.099c.805.129 1.457.33 2.057.9 1.003.964 1.83 2.349 1.83 3.986"/></g><defs><clipPath id="a"><path fill="#fff" d="M0 0h24v24H0z"/></clipPath></defs></svg>
